X:4
T:Saint, Saint, Saint - A69
C:R. Reboud
M:C|
L:1/4
K:D
D2F2|A2 AA|A4|BB AG|A2 zD|(DE) FG|A3/A/ AG|
w:Saint Saint|Saint le Sei-|gneur,|Dieu de l'u-ni-|vers! Le|ciel*et la|ter-re sont rem-|
A2 AG|E2 F2|D2 E2|F2 EF|G2 (FE)|F4||z2 DD|
w:plis de ta|goi-re.|Ho-san-|na au plus|haut des*|cieux|B-ni|
DD DD|E3 F|G2 FG|E4||D2 E2|F2 EF|G2 (FE)|HF4|]
w:soit ce-lui qui|vient au|nom du Sei-|gneur.|Ho-san-|na au plus|haut des*|cieux|
